img/feature-quality.svg

<svg width="136" height="136" viewBox="0 0 136 136" fill="none" xmlns="http://www.w3.org/2000/svg">
<g filter="url(#filter0_d)">
<circle cx="67" cy="67" r="48" fill="white"/>
</g>
<path d="M63.6694 59.6244C63.7502 59.514 63.8461 59.4111 63.9565 59.3153C64.0671 59.2196 64.1848 59.1294 64.3099 59.0446C64.435 58.96 64.5622 58.8809 64.6911 58.8072C64.8199 58.7336 64.9397 58.6637 65.0501 58.5973C65.2119 58.5018 65.3721 58.3969 65.5307 58.2826C65.6889 58.1685 65.8306 58.036 65.9559 57.8851C66.0811 57.7343 66.1824 57.563 66.2598 57.3715C66.3371 57.18 66.3758 56.9628 66.3758 56.7199C66.3758 56.1309 66.162 55.6634 65.735 55.3172C65.3079 54.9712 64.6968 54.7981 63.9014 54.7981C63.5772 54.7981 63.2663 54.8275 62.9682 54.8865C62.6699 54.9455 62.3954 55.0245 62.1451 55.1239C61.8947 55.2233 61.6719 55.3357 61.4768 55.4608C61.2816 55.586 61.1252 55.7148 61.0074 55.8472L62.123 57.1505C62.3365 56.9075 62.5576 56.7106 62.7859 56.5596C63.014 56.4088 63.283 56.3332 63.5922 56.3332C63.8646 56.3332 64.0763 56.3959 64.2273 56.521C64.3782 56.6463 64.4537 56.812 64.4537 57.018C64.4537 57.1212 64.4243 57.2131 64.3655 57.2942C64.3063 57.3752 64.2069 57.4636 64.0672 57.5593C63.9271 57.655 63.7413 57.7654 63.5093 57.8906C63.2773 58.0159 62.9883 58.1705 62.6422 58.3544C62.318 58.5311 62.0474 58.7153 61.8303 58.9066C61.6131 59.0982 61.4381 59.308 61.3056 59.5361C61.1731 59.7644 61.0791 60.0148 61.0239 60.2871C60.9687 60.5596 60.941 60.8689 60.941 61.2149H66.4973V59.6244H63.6694Z" fill="#083C6E"/>
<path d="M72.0203 59.5142V54.9087H70.8162L67.2042 59.5252V61.1046H70.2529V62.6179H72.0203V61.1047H72.9922V59.5142H72.0203ZM70.4516 59.5143H68.9605L70.4516 57.5595V59.5143Z" fill="#083C6E"/>
<path d="M80.5742 69.5593C81.3096 69.0872 81.9385 68.4422 82.3923 67.6565C83.2189 66.2251 83.3545 64.5239 82.8229 63.0101C84.0401 61.9649 84.7734 60.4237 84.7734 58.771C84.7734 57.1183 84.0401 55.5771 82.8229 54.5319C83.3544 53.0181 83.2188 51.3169 82.3923 49.8855C81.5658 48.4541 80.1601 47.486 78.5831 47.1894C78.2864 45.6129 77.3182 44.2072 75.8867 43.3808C74.455 42.5544 72.7534 42.4188 71.2397 42.9502C70.1944 41.7332 68.653 41 67 41C65.347 41 63.8057 41.7332 62.7603 42.9503C61.2465 42.4188 59.5449 42.5544 58.1133 43.3809C56.6818 44.2073 55.7136 45.613 55.4168 47.1895C53.84 47.4862 52.4342 48.4543 51.6077 49.8856C50.7811 51.317 50.6455 53.0182 51.1771 54.532C49.9599 55.5771 49.2266 57.1183 49.2266 58.771C49.2266 60.4237 49.9599 61.9649 51.1771 63.0101C50.6456 64.5239 50.7812 66.2251 51.6077 67.6565C52.0614 68.4423 52.6904 69.0873 53.4257 69.5594L41.4722 81.5111L51.6368 82.8367L52.9627 93L67 78.9647L81.0373 93L82.3632 82.8367L92.5278 81.5111L80.5742 69.5593ZM81.7266 58.771C81.7266 59.7707 81.136 60.6807 80.2218 61.0894L78.5912 61.8184C78.8474 60.8449 78.9845 59.8237 78.9845 58.771C78.9845 57.7183 78.8475 56.697 78.5912 55.7236L80.2218 56.4526C81.136 56.8613 81.7266 57.7713 81.7266 58.771ZM58.3811 69.0606L58.566 67.2753C60.013 68.7101 61.8231 69.779 63.8444 70.3312L62.3971 71.3789C61.5861 71.966 60.5025 72.0226 59.6366 71.5227C58.7709 71.023 58.278 70.0565 58.3811 69.0606ZM56.709 67.3887C55.7123 67.4918 54.7463 66.9989 54.2464 66.1332C53.7465 65.2674 53.8031 64.1841 54.3903 63.3732L55.4381 61.9262C55.9904 63.9473 57.0595 65.7571 58.4946 67.2039L56.709 67.3887ZM58.0625 58.771C58.0625 53.8435 62.0719 49.8347 67 49.8347C71.9281 49.8347 75.9375 53.8435 75.9375 58.771C75.9375 63.6985 71.9281 67.7073 67 67.7073C62.0719 67.7073 58.0625 63.6985 58.0625 58.771ZM75.4341 67.2754L75.6189 69.0607C75.722 70.0565 75.2291 71.023 74.3633 71.5229C73.4974 72.0228 72.4141 71.9663 71.6028 71.3791L70.1556 70.3315C72.177 69.7791 73.987 68.7102 75.4341 67.2754ZM75.5055 67.204C76.9405 65.7572 78.0095 63.9474 78.5619 61.9263L79.6097 63.3733C80.1969 64.1843 80.2535 65.2676 79.7536 66.1333C79.2537 66.999 78.2862 67.492 77.291 67.3888L75.5055 67.204ZM77.291 50.1532C78.2873 50.05 79.2537 50.543 79.7536 51.4087C80.2535 52.2745 80.1969 53.3578 79.6097 54.1687L78.5619 55.6157C78.0096 53.5946 76.9405 51.7848 75.5055 50.338L77.291 50.1532ZM71.6028 46.163C72.4138 45.5759 73.4974 45.5193 74.3633 46.0192C75.2292 46.5191 75.722 47.4855 75.6189 48.4814L75.4341 50.2667C73.987 48.8319 72.177 47.763 70.1557 47.2108L71.6028 46.163ZM64.6813 45.5511C65.0901 44.6371 66.0002 44.0465 67 44.0465C67.9998 44.0465 68.9099 44.6371 69.3187 45.5511L70.048 47.1815C69.0744 46.9254 68.053 46.7882 67 46.7882C65.947 46.7882 64.9256 46.9253 63.952 47.1815L64.6813 45.5511ZM59.6367 46.0191C60.5026 45.5192 61.586 45.5757 62.3972 46.1629L63.8445 47.2105C61.8232 47.7627 60.0131 48.8317 58.5661 50.2665L58.3812 48.4812C58.278 47.4855 58.7709 46.519 59.6367 46.0191ZM54.2464 51.4087C54.7463 50.543 55.7135 50.0501 56.709 50.1532L58.4946 50.338C57.0595 51.7848 55.9905 53.5946 55.4381 55.6157L54.3903 54.1687C53.8031 53.3578 53.7465 52.2745 54.2464 51.4087ZM52.2734 58.771C52.2734 57.7713 52.864 56.8613 53.7782 56.4526L55.4088 55.7236C55.1526 56.6971 55.0155 57.7183 55.0155 58.771C55.0155 59.8237 55.1525 60.845 55.4088 61.8184L53.7782 61.0894C52.864 60.6806 52.2734 59.7707 52.2734 58.771ZM55.1836 86.471L54.3551 80.1189L48.0021 79.2904L55.773 71.5205C56.2393 72.6093 57.0476 73.5458 58.1132 74.161C59.5448 74.9874 61.2465 75.1229 62.7602 74.5916C63.4488 75.3933 64.3532 75.9831 65.3623 76.2937L55.1836 86.471ZM64.6813 71.9909L63.952 70.3605C64.9256 70.6166 65.947 70.7537 67 70.7537C68.053 70.7537 69.0744 70.6167 70.048 70.3605L69.3187 71.9909C68.9099 72.9049 67.9998 73.4955 67 73.4955C66.0002 73.4955 65.0901 72.9049 64.6813 71.9909ZM79.6449 80.1189L78.8164 86.471L68.6377 76.2938C69.6468 75.9832 70.5512 75.3934 71.2398 74.5917C72.7536 75.1232 74.4552 74.9875 75.8868 74.1611C76.9525 73.5459 77.7609 72.6094 78.2271 71.5206L85.998 79.2905L79.6449 80.1189Z" fill="#083C6E"/>
<defs>
<filter id="filter0_d" x="0" y="0" width="136" height="136" filterUnits="userSpaceOnUse" color-interpolation-filters="sRGB">
<feFlood flood-opacity="0" result="BackgroundImageFix"/>
<feColorMatrix in="SourceAlpha" type="matrix" values="0 0 0 0 0 0 0 0 0 0 0 0 0 0 0 0 0 0 127 0"/>
<feOffset dx="1" dy="1"/>
<feGaussianBlur stdDeviation="10"/>
<feColorMatrix type="matrix" values="0 0 0 0 0 0 0 0 0 0 0 0 0 0 0 0 0 0 0.07 0"/>
<feBlend mode="normal" in2="BackgroundImageFix" result="effect1_dropShadow"/>
<feBlend mode="normal" in="SourceGraphic" in2="effect1_dropShadow" result="shape"/>
</filter>
</defs>
</svg>

<svg width="136" height="136" fill="none" xmlns="http://www.w3.org/2000/svg"><g filter="url(#prefix__a)"><circle cx="67" cy="67" r="48" fill="#fff"/></g><path d="M63.67 59.624c.08-.11.176-.213.286-.309.111-.095.229-.186.354-.27.125-.085.252-.164.381-.238.129-.073.249-.143.36-.21.16-.095.321-.2.48-.314.158-.114.3-.247.425-.398a1.93 1.93 0 0 0 .304-.514c.077-.191.116-.408.116-.651 0-.59-.214-1.057-.641-1.403-.427-.346-1.038-.519-1.834-.519a4.796 4.796 0 0 0-1.756.326c-.25.1-.473.212-.668.337a2.25 2.25 0 0 0-.47.386l1.116 1.303c.214-.242.435-.44.663-.59.228-.151.497-.227.806-.227.273 0 .484.063.635.188.151.125.227.291.227.497 0 .103-.03.195-.088.276-.06.081-.16.17-.299.265-.14.096-.326.206-.558.332-.232.125-.52.28-.867.463-.324.177-.595.361-.812.553a2.547 2.547 0 0 0-.524.63 2.458 2.458 0 0 0-.282.75 4.699 4.699 0 0 0-.083.928h5.556v-1.59H63.67zM72.02 59.514V54.91h-1.204l-3.612 4.616v1.58h3.049v1.513h1.767v-1.513h.972v-1.59h-.972zm-1.568 0H68.96l1.492-1.955v1.955z" fill="#083C6E"/><path d="M80.574 69.56a5.572 5.572 0 0 0 2.249-6.55 5.593 5.593 0 0 0 1.95-4.239 5.593 5.593 0 0 0-1.95-4.24 5.592 5.592 0 0 0-.43-4.645 5.593 5.593 0 0 0-3.81-2.697 5.593 5.593 0 0 0-2.696-3.808 5.595 5.595 0 0 0-4.647-.43A5.594 5.594 0 0 0 67 41a5.594 5.594 0 0 0-4.24 1.95 5.594 5.594 0 0 0-4.647.43 5.594 5.594 0 0 0-2.696 3.81 5.594 5.594 0 0 0-3.81 2.696 5.592 5.592 0 0 0-.43 4.646 5.592 5.592 0 0 0-1.95 4.239c0 1.653.733 3.194 1.95 4.24a5.571 5.571 0 0 0 2.249 6.55L41.472 81.51l10.165 1.326L52.963 93 67 78.965 81.037 93l1.326-10.163 10.165-1.326L80.574 69.56zm1.153-10.789c0 1-.591 1.91-1.505 2.318l-1.63.73c.255-.974.392-1.995.392-3.048s-.136-2.074-.393-3.047l1.63.729a2.543 2.543 0 0 1 1.506 2.318zM58.38 69.061l.185-1.786a11.989 11.989 0 0 0 5.278 3.056l-1.447 1.048a2.544 2.544 0 0 1-2.76.144 2.543 2.543 0 0 1-1.256-2.462zm-1.672-1.672a2.543 2.543 0 0 1-2.463-1.256c-.5-.866-.443-1.949.144-2.76l1.048-1.447a11.985 11.985 0 0 0 3.057 5.278l-1.786.185zm1.353-8.618c0-4.928 4.01-8.936 8.938-8.936 4.928 0 8.938 4.008 8.938 8.936s-4.01 8.936-8.938 8.936c-4.928 0-8.938-4.008-8.938-8.936zm17.372 8.504.185 1.786a2.544 2.544 0 0 1-1.256 2.462c-.866.5-1.949.443-2.76-.144l-1.447-1.047a11.991 11.991 0 0 0 5.278-3.057zm.072-.071a11.987 11.987 0 0 0 3.056-5.278l1.048 1.447c.587.811.644 1.895.144 2.76a2.545 2.545 0 0 1-2.463 1.256l-1.785-.185zm1.785-17.05a2.544 2.544 0 0 1 2.463 1.255c.5.866.443 1.949-.144 2.76l-1.048 1.447a11.986 11.986 0 0 0-3.056-5.278l1.785-.185zm-5.688-3.991a2.544 2.544 0 0 1 2.76-.144 2.543 2.543 0 0 1 1.256 2.462l-.185 1.786a11.99 11.99 0 0 0-5.278-3.056l1.447-1.048zm-6.922-.612A2.544 2.544 0 0 1 67 44.046c1 0 1.91.591 2.319 1.505l.729 1.63A11.967 11.967 0 0 0 67 46.788c-1.053 0-2.074.137-3.048.394l.73-1.63zm-5.044.468c.866-.5 1.949-.443 2.76.144l1.447 1.048a11.989 11.989 0 0 0-5.278 3.056l-.185-1.786a2.543 2.543 0 0 1 1.256-2.462zm-5.39 5.39a2.544 2.544 0 0 1 2.462-1.256l1.786.185a11.986 11.986 0 0 0-3.057 5.278l-1.048-1.447a2.543 2.543 0 0 1-.144-2.76zm-1.974 7.362c0-1 .591-1.91 1.505-2.318l1.63-.73a11.959 11.959 0 0 0-.392 3.048c0 1.053.137 2.074.393 3.047l-1.63-.729a2.543 2.543 0 0 1-1.506-2.318zm2.91 27.7-.828-6.352-6.353-.829 7.771-7.77a5.584 5.584 0 0 0 2.34 2.641 5.595 5.595 0 0 0 4.647.43 5.605 5.605 0 0 0 2.602 1.703L55.184 86.47zm9.498-14.48-.729-1.63c.974.256 1.995.393 3.048.393s2.074-.137 3.048-.394l-.73 1.63A2.544 2.544 0 0 1 67 73.497c-1 0-1.91-.591-2.319-1.505zm14.964 8.128-.829 6.352-10.178-10.177c1.009-.31 1.913-.9 2.602-1.702a5.594 5.594 0 0 0 4.647-.43 5.583 5.583 0 0 0 2.34-2.641l7.771 7.77-6.353.828z" fill="#083C6E"/><defs><filter id="prefix__a" x="0" y="0" width="136" height="136" filterUnits="userSpaceOnUse" color-interpolation-filters="sRGB"><feFlood flood-opacity="0" result="BackgroundImageFix"/><feColorMatrix in="SourceAlpha" values="0 0 0 0 0 0 0 0 0 0 0 0 0 0 0 0 0 0 127 0"/><feOffset dx="1" dy="1"/><feGaussianBlur stdDeviation="10"/><feColorMatrix values="0 0 0 0 0 0 0 0 0 0 0 0 0 0 0 0 0 0 0.07 0"/><feBlend in2="BackgroundImageFix" result="effect1_dropShadow"/><feBlend in="SourceGraphic" in2="effect1_dropShadow" result="shape"/></filter></defs></svg>
